!!!COM: Giovanni Pietro del Buono
!!!OPR: Canoni, oblighi et Sonate in varie maniere sopra l'Ave Maris Stella
!!!OTL: Canoni, a otto voci.  Tre canoni insieme.
!!!OTL: All'unisono a mezza pausa con l'obligo di non caminar di grado.
!!!OTL: Alla quinta alta a due pause.
!!!XEN: Canons in eight voices.  Triple canon.
!!!ONB: Three canons are present, one of which is a double canon, thus
!!!ONB: creating four canonic permutations:
!!!ONB: (1) Canon at the 5th above after a semibreve includes
!!!ONB: CF (1st spine), guida1 (7th spine) and consequente1 (8th spine);
!!!ONB: (2) Canon at the 6th above after a semibreve includes CF (1st spine),
!!!ONB: guida2 (3rd spine) and consequente2a (5th spine), and
!!!ONB: (3) Canon at the seventh above after 2 semibreves includes
!!!ONB: CF (1st spine), guida2 (3rd spine) and consequente2b (6th spine); and
!!!ONB: (4) Canon at the octave above after a crotchet, CF (1st spine),
!!!ONB: guida3 (2nd spine) and consequente3 (4th spine).
!!!ONB: The terms "semibreve," "crotchet," etc. used above refer to *half*
!!!ONB: duration values, i.e. semibreve=breve; crotchet=half-note, etc.
!!!PPR: P.Denti
!!!PDT: 1641
!!!PPP: Palermo
!!!YOR: Palermo: P.Denti, 1641 (microfilm)
!!!YOO: Civico Museo Bibliografico Musicale, Bologna.
**kern	**kern	**kern	**kern	**kern	**kern	**kern	**kern
*CF	*guida3	*guida2	*conseq3	*conseq2a	*conseq2b	*guida1	*conseq1
*M4/2	*M4/2	*M4/2	*M4/2	*M4/2	*M4/2	*M4/2	*M4/2
*k[]	*k[]	*k[]	*k[]	*k[]	*k[]	*k[]	*k[]
=1-	=1-	=1-	=1-	=1-	=1-	=1-	=1-
0D	0r	2r	0r	0r	0r	2d	0r
.	.	2A	.	.	.	2.f	.
.	.	2A	.	.	.	.	.
.	.	.	.	.	.	4e	.
.	.	2A	.	.	.	2d	.
=2	=2	=2	=2	=2	=2	=2	=2
0A	2A	2.F	2r	2r	0r	1c	2a
.	2.F	.	2a	2f	.	.	2.cc
.	.	4E	.	.	.	.	.
.	.	1D	2.f	2f	.	1r	.
.	2D	.	.	.	.	.	4b
.	.	.	.	2f	.	.	2a
.	4D	.	[4d	.	.	.	.
=3	=3	=3	=3	=3	=3	=3	=3
0B	1GG	1G	4d]	2.d	2r	0r	1g
.	.	.	4d	.	.	.	.
.	.	.	1G	.	2g	.	.
.	.	.	.	4c	.	.	.
.	4r	2G	.	1B	2g	.	1r
.	2GG	.	.	.	.	.	.
.	.	[2E	4r	.	2g	.	.
.	8AA	.	[4G	.	.	.	.
.	8BB	.	.	.	.	.	.
=4	=4	=4	=4	=4	=4	=4	=4
0G	1C	4E]	4G]	1e	2.e	1r	0r
.	.	4D	8A	.	.	.	.
.	.	.	8B	.	.	.	.
.	.	1C	1c	.	.	.	.
.	.	.	.	.	4d	.	.
.	4.C	.	.	2e	1c	2G	.
.	8D	.	.	.	.	.	.
.	4E	2C	4.c	[2c	.	4G	.
.	4C	.	.	.	.	4G	.
.	.	.	8d	.	.	.	.
=5	=5	=5	=5	=5	=5	=5	=5
0A	2c	2r	4c	4c]	1f	2c	1r
.	.	.	4c	4B	.	.	.
.	2F	2F	2cc	1A	.	2r	.
.	4r	2F	2f	.	2f	1r	2d
.	2D	.	.	.	.	.	.
.	.	2F	4r	2A	[2d	.	4d
.	4D	.	[4d	.	.	.	4d
=6	=6	=6	=6	=6	=6	=6	=6
0B	2d	1G	4d]	2r	4d]	0r	2g
.	.	.	4d	.	4c	.	.
.	4d	.	2f	2d	1B	.	2r
.	4.B	.	.	.	.	.	.
.	.	1G	4f	2d	.	.	1r
.	8A	.	.	.	.	.	.
.	4G	.	4.d	.	.	.	.
.	2GG	.	.	2d	2B	.	.
.	.	.	8c	.	.	.	.
.	.	.	4B	.	.	.	.
=7	=7	=7	=7	=7	=7	=7	=7
0c	1C	0r	2G	1e	2r	2.g	0r
.	.	.	1c	.	2e	.	.
.	.	.	.	.	.	4g	.
.	1r	.	.	1e	2e	2g	.
.	.	.	2r	.	2e	2e	.
=8	=8	=8	=8	=8	=8	=8	=8
0d	0r	0r	0r	0r	1f	2.a	2.dd
.	.	.	.	.	.	4g	4dd
.	.	.	.	.	1f	2f	2dd
.	.	.	.	.	.	2d	2b
=9	=9	=9	=9	=9	=9	=9	=9
0c	2AA	2r	2r	0r	0r	2e	2.ee
.	2.A	1F	2A	.	.	1c	.
.	.	.	.	.	.	.	4dd
.	.	.	2.a	.	.	.	2cc
.	4A	.	.	.	.	.	.
.	4G	2F	.	.	.	2c	2a
.	4F	.	4a	.	.	.	.
=10	=10	=10	=10	=10	=10	=10	=10
0B	1G	0r	4g	2r	0r	4r	2b
.	.	.	4f	.	.	2d	.
.	.	.	1g	1d	.	.	1g
.	.	.	.	.	.	4d	.
.	2G	.	.	.	.	2d	.
.	2r	.	2g	2d	.	2d	2g
=11	=11	=11	=11	=11	=11	=11	=11
0A	2c	0r	2r	0r	2r	2e	4r
.	.	.	.	.	.	.	2a
.	4c	.	2cc	.	1e	2A	.
.	4.c	.	.	.	.	.	4a
.	.	.	4cc	.	.	1c	2a
.	8d	.	.	.	.	.	.
.	2e	.	4.cc	.	.	.	.
.	.	.	.	.	2e	.	2a
.	.	.	8dd	.	.	.	.
.	8d	.	[4ee	.	.	.	.
.	8c	.	.	.	.	.	.
=12	=12	=12	=12	=12	=12	=12	=12
0G	4B	1.E	4ee]	0r	0r	0r	2b
.	4A	.	8dd	.	.	.	.
.	.	.	8cc	.	.	.	.
.	4G	.	4b	.	.	.	2e
.	4F	.	4a	.	.	.	.
.	4E	.	4g	.	.	.	1g
.	4D	.	4f	.	.	.	.
.	2C	2E	4e	.	.	.	.
.	.	.	4d	.	.	.	.
=13	=13	=13	=13	=13	=13	=13	=13
0A	2FF	0F	2c	1.c	0r	0r	0r
.	4r	.	2F	.	.	.	.
.	4A	.	.	.	.	.	.
.	2F	.	4r	.	.	.	.
.	.	.	4a	.	.	.	.
.	2A	.	2f	2c	.	.	.
=14	=14	=14	=14	=14	=14	=14	=14
0A	4D	0r	2a	0d	1.d	1f	0r
.	4E	.	.	.	.	.	.
.	4F	.	4d	.	.	.	.
.	4E	.	4e	.	.	.	.
.	2D	.	4f	.	.	2f	.
.	.	.	4e	.	.	.	.
.	4C	.	2d	.	2d	2f	.
.	4BB	.	.	.	.	.	.
=15	=15	=15	=15	=15	=15	=15	=15
0A	1AA	0r	4c	0r	0e	4r	1cc
.	.	.	4B	.	.	4e	.
.	.	.	1A	.	.	2c	.
.	2A	.	.	.	.	2e	2cc
.	2r	.	2a	.	.	2A	2cc
=16	=16	=16	=16	=16	=16	=16	=16
0G	4r	1E	2r	0r	0r	0r	4r
.	4G	.	.	.	.	.	4b
.	2E	.	4r	.	.	.	2g
.	.	.	4g	.	.	.	.
.	2G	2E	2e	.	.	.	2b
.	4.C	2E	2g	.	.	.	2e
.	8D	.	.	.	.	.	.
=17	=17	=17	=17	=17	=17	=17	=17
0A	2E	1AA	4.c	1c	0r	0r	0r
.	.	.	8d	.	.	.	.
.	2AA	.	2e	.	.	.	.
.	4r	2A	2A	2c	.	.	.
.	8F	.	.	.	.	.	.
.	8G	.	.	.	.	.	.
.	4A	[2F	4r	2c	.	.	.
.	4AA	.	8f	.	.	.	.
.	.	.	8g	.	.	.	.
=18	=18	=18	=18	=18	=18	=18	=18
0D	2.D	4F]	4a	1F	1d	1a	0r
.	.	4E	4A	.	.	.	.
.	.	4D	2.d	.	.	.	.
.	4E	4C	.	.	.	.	.
.	2F	1D	.	2f	2d	1a	.
.	.	.	4e	.	.	.	.
.	4G	.	2f	[2d	2d	.	.
.	4A	.	.	.	.	.	.
=19	=19	=19	=19	=19	=19	=19	=19
0E	4G	2.G	4g	4d]	1g	0r	1ee
.	4C	.	4a	4c	.	.	.
.	4E	.	4g	4B	.	.	.
.	4F	4F	4c	4A	.	.	.
.	2G	4E	4e	1B	2g	.	1ee
.	.	4D	4f	.	.	.	.
.	2r	2E	2g	.	[2e	.	.
=20	=20	=20	=20	=20	=20	=20	=20
0G	2r	0C	1r	2.e	4e]	1g	0r
.	.	.	.	.	4d	.	.
.	2C	.	.	.	4c	.	.
.	.	.	.	4d	4B	.	.
.	2E	.	2c	4c	1c	2g	.
.	.	.	.	4B	.	.	.
.	2r	.	2e	2c	.	2g	.
=21	=21	=21	=21	=21	=21	=21	=21
0F	1D	0r	2r	0A	2.f	1.a	1dd
.	.	.	1d	.	.	.	.
.	.	.	.	.	4e	.	.
.	4D	.	.	.	4d	.	2dd
.	4A	.	.	.	4c	.	.
.	4G	.	4d	.	2d	2a	2dd
.	4F	.	4a	.	.	.	.
=22	=22	=22	=22	=22	=22	=22	=22
0E	2.G	0r	4g	0r	0A	4b	1.ee
.	.	.	4f	.	.	4a	.
.	.	.	2.g	.	.	4g	.
.	4A	.	.	.	.	4f	.
.	2Bn	.	.	.	.	4e	.
.	.	.	4a	.	.	4f	.
.	2r	.	2b	.	.	4g	2ee
.	.	.	.	.	.	4e	.
=23	=23	=23	=23	=23	=23	=23	=23
0D	2r	2r	1r	0r	0r	2a	4ff
.	.	.	.	.	.	.	4ee
.	2B	2GG	.	.	.	2r	4dd
.	.	.	.	.	.	.	4cc
.	2G	2GG	2b	.	.	1r	4b
.	.	.	.	.	.	.	4cc
.	2GG	2GG	2g	.	.	.	4dd
.	.	.	.	.	.	.	4b
=24	=24	=24	=24	=24	=24	=24	=24
0E	4.G	1C	2G	2r	0r	0r	2ee
.	8F	.	.	.	.	.	.
.	4.E	.	4.g	2E	.	.	2r
.	8D	.	8f	.	.	.	.
.	4C	1r	4.e	2E	.	.	1r
.	4E	.	.	.	.	.	.
.	.	.	8d	.	.	.	.
.	4F	.	4c	2E	.	.	.
.	4G	.	4e	.	.	.	.
=25	=25	=25	=25	=25	=25	=25	=25
0D	4F	2.A	4f	1A	2r	0r	0r
.	4E	.	4g	.	.	.	.
.	2D	.	4f	.	2F	.	.
.	.	4G	4e	.	.	.	.
.	1r	2F	2d	1r	2F	.	.
.	.	2A	2r	.	2F	.	.
=26	=26	=26	=26	=26	=26	=26	=26
0F	2D	1r	2r	2.f	1B-	0r	0r
.	2BB-	.	2d	.	.	.	.
.	.	.	.	4e	.	.	.
.	2D	1D	2B-	2d	1r	.	.
.	2r	.	2d	2f	.	.	.
=27	=27	=27	=27	=27	=27	=27	=27
0E	2r	0G	1r	1r	2.g	1c	0r
.	2C	.	.	.	.	.	.
.	.	.	.	.	4f	.	.
.	1E	.	2c	1B	2e	1r	.
.	.	.	[2e	.	2g	.	.
=28	=28	=28	=28	=28	=28	=28	=28
0G	2E	0r	2e]	0e	1r	2r	1g
.	2.E	.	2e	.	.	2g	.
.	.	.	2.e	.	1c	2g	1r
.	4D	.	.	.	.	.	.
.	4C	.	.	.	.	2g	.
.	4BB	.	4d	.	.	.	.
=29	=29	=29	=29	=29	=29	=29	=29
0A	2C	0r	4c	0r	0f	2f	2r
.	.	.	4B	.	.	.	.
.	4FF	.	2c	.	.	2.f	2dd
.	4F	.	.	.	.	.	.
.	2.D	.	4F	.	.	.	2dd
.	.	.	4f	.	.	4g	.
.	.	.	[2d	.	.	[2a	2dd
.	4E	.	.	.	.	.	.
=30	=30	=30	=30	=30	=30	=30	=30
0A	4F	2.F	4d]	0r	0r	2a]	2cc
.	4G	.	4e	.	.	.	.
.	1A	.	4f	.	.	4g	2.cc
.	.	4G	4g	.	.	4f	.
.	.	2A	1a	.	.	1e	.
.	.	.	.	.	.	.	4dd
.	2AA	2AA	.	.	.	.	[2ee
=31	=31	=31	=31	=31	=31	=31	=31
0D	2D	0r	2A	2.d	0r	0f	2ee]
.	2r	.	2d	.	.	.	4dd
.	.	.	.	4e	.	.	4cc
.	1r	.	1r	2f	.	.	1b
.	.	.	.	2F	.	.	.
=32	=32	=32	=32	=32	=32	=32	=32
0E	4G	1C	2r	0r	2.e	0r	0cc
.	4F	.	.	.	.	.	.
.	4E	.	4g	.	.	.	.
.	4D	.	4f	.	4f	.	.
.	2C	1C	4e	.	2g	.	.
.	.	.	4d	.	.	.	.
.	2c	.	2c	.	2G	.	.
=33	=33	=33	=33	=33	=33	=33	=33
0F	4F	0r	2cc	1A	0r	2.c	0r
.	4G	.	.	.	.	.	.
.	1A	.	4f	.	.	.	.
.	.	.	4g	.	.	4B	.
.	.	.	1a	1A	.	4A	.
.	.	.	.	.	.	4B	.
.	4G	.	.	.	.	4c	.
.	4F	.	.	.	.	4d	.
=34	=34	=34	=34	=34	=34	=34	=34
0E	1G	0r	4g	0r	1B	4e	2.g
.	.	.	4f	.	.	4d	.
.	.	.	1g	.	.	4e	.
.	.	.	.	.	.	4f	4f
.	2G	.	.	.	1B	2g	4e
.	.	.	.	.	.	.	4f
.	2G	.	2g	.	.	2G	4g
.	.	.	.	.	.	.	4a
=35	=35	=35	=35	=35	=35	=35	=35
0D	2GG	2r	2g	0r	0r	0r	4b
.	.	.	.	.	.	.	4a
.	4.GG	2BB	2G	.	.	.	4b
.	.	.	.	.	.	.	4cc
.	8AA	.	.	.	.	.	.
.	4BB	2BB	4.G	.	.	.	2dd
.	4GG	.	.	.	.	.	.
.	.	.	8A	.	.	.	.
.	4.G	2BB	4B	.	.	.	2d
.	.	.	4G	.	.	.	.
.	8F	.	.	.	.	.	.
=36	=36	=36	=36	=36	=36	=36	=36
0C	4E	0C	4.g	2r	0r	0r	0r
.	4D	.	.	.	.	.	.
.	.	.	8f	.	.	.	.
.	4C	.	4e	2G	.	.	.
.	4D	.	4d	.	.	.	.
.	4E	.	4c	2G	.	.	.
.	4D	.	4d	.	.	.	.
.	4C	.	4e	2G	.	.	.
.	4BB	.	4d	.	.	.	.
=37	=37	=37	=37	=37	=37	=37	=37
0E	2AA	0r	4c	0A	2r	1.e	0r
.	.	.	4B	.	.	.	.
.	1C	.	2A	.	2A	.	.
.	.	.	1c	.	2A	.	.
.	4BB	.	.	.	2A	2e	.
.	4AA	.	.	.	.	.	.
=38	=38	=38	=38	=38	=38	=38	=38
0G	4GG	2.G	4B	0r	0B	0r	1.b
.	4AA	.	4A	.	.	.	.
.	2BB	.	4G	.	.	.	.
.	.	4F	4A	.	.	.	.
.	1EE	4E	2B	.	.	.	.
.	.	4D	.	.	.	.	.
.	.	4E	[2E	.	.	.	2b
.	.	4E	.	.	.	.	.
=39	=39	=39	=39	=39	=39	=39	=39
0E	1AA	2.C	2E]	2.e	0r	0r	0r
.	.	.	1A	.	.	.	.
.	.	4BB	.	4d	.	.	.
.	2AA	1AA	.	4c	.	.	.
.	.	.	.	4B	.	.	.
.	2AA	.	2A	4c	.	.	.
.	.	.	.	4c	.	.	.
=40	=40	=40	=40	=40	=40	=40	=40
0F	1D	0r	2A	2.A	2.f	2r	0r
.	.	.	1d	.	.	2A	.
.	.	.	.	4G	4e	.	.
.	1r	.	.	1F	4d	2a	.
.	.	.	.	.	4c	.	.
.	.	.	2r	.	4d	4g	.
.	.	.	.	.	4d	4f	.
=41	=41	=41	=41	=41	=41	=41	=41
0E	4r	0r	2r	0r	2.B	1g	2r
.	4E	.	.	.	.	.	.
.	4.G	.	4r	.	.	.	2e
.	.	.	4e	.	4A	.	.
.	8F	.	.	.	.	.	.
.	2E	.	4.g	.	1G	2e	2ee
.	.	.	8f	.	.	.	.
.	2r	.	2e	.	.	[2g	4dd
.	.	.	.	.	.	.	4cc
=42	=42	=42	=42	=42	=42	=42	=42
[0D	4r	1.A	2r	0r	0r	2g]	[0dd
.	4D	.	.	.	.	.	.
.	2A	.	4r	.	.	4f	.
.	.	.	4d	.	.	4e	.
.	1F	.	2a	.	.	2f	.
.	.	4G	[2f	.	.	2d	.
.	.	4A	.	.	.	.	.
=43	=43	=43	=43	=43	=43	=43	=43
0D_	1BB-	2B-	2f]	1.r	0r	0d	0dd_
.	.	4A	1B-	.	.	.	.
.	.	4G	.	.	.	.	.
.	2BB-	2F	.	.	.	.	.
.	2BB-	2D	2B-	4e	.	.	.
.	.	.	.	4f	.	.	.
=44	=44	=44	=44	=44	=44	=44	=44
0D_	2GG	2.BB-	2B-	2g	1.g	1d	0dd_
.	2GG	.	2G	4f	.	.	.
.	.	4GG	.	4e	.	.	.
.	2BB-	1GG	2G	[1d	.	2.d	.
.	4AA	.	2B-	.	4f	.	.
.	4GG	.	.	.	4g	4e	.
=45	=45	=45	=45	=45	=45	=45	=45
0D]	0D	0DD	0A	0d]	0a	0f#	0dd]
==	==	==	==	==	==	==	==
*-	*-	*-	*-	*-	*-	*-	*-
!!!CDT: flourished 1641
!!!CNT: Italia
!!!ODT: <1641//
!!!YEP: David Huron and Denis Collins
!!!YEN: Canada
!!!AIN: vox; ?
!!!AST: polyphony
!!!RDT: 1995 April 29
!!!YED: 1995 August 31
!!!AFR: cantus firmus canon
!!!AMT: simple quadruple
!!!EEV: 1.0
